X:465
T:Beauties of Ireland
C:- trad. -
O:England
M:12/8
L:1/8
Q:1/4=82
K:F
V:1
a2 f(f af) z3 (ac' a)|g2 c(c ec) z3 (gb g)|a2 f(f af) z3 (fa f)|(d ef gf e)(f bd') (c'2 b)|
a2 f(f af) z3 (ac' a)|g2 c(c ec) z3 (gb g)|a2 f(f af) z3 (fa f)|(d ef gf e)f3 c'3 |
a2 f(f ga bc' ba ba) |(ge c)(c ec) (ge c)(c ec) |a2 f(f ga) (bd' ba c'a) |(ge c)(c de) f3 f3 |
a2 f(f ga bc' ba ba) |(ge c)(c ec) (ge c)(c ec) |a2 f(f ga) (bd' ba c'a) |(ge c)(c de) f3 c'3 :| |:
c'2 a(a bc' d'_e' d'c' d'c') |(bg e)(e gb) (bg e)(e gb) |c'2 a(a bc') (d'_e' d')(c'2 d')|c'2 g(g2 a)b2 b(d' c'b) |
c'2 a(a bc' d'_e' d'c' d'c') |(bg e)(e gb) (bg e)(e gb) |c'2 a(a bc') (d'_e' d')(c'2 d')|c'2 g(g ag) f3 f3 :|
V:2          %2
"Ab" f3 z3 (fa f)(f af) |"Eb/ab" e3 z3 (ce c)(c ec) |"Ab" f3 z3 (fa f)c3 |"Db" (DE FG FE) F2 z"Ebm7" (_e3 |
"Ab" f3) z3 (fa f)(f af) |"Eb/ab" e3 z3 (ce c)(c de) |"Ab" f3 z3 (fa f)c3 |"Db" (DE F"Eb" G FE) "Ab" F3 "Eb" (e3 |
"Ab" f3 (cd cB cB AB A)|"Eb" G3 z3 (c2 c/)(B/4A/4G/4A/4G/4A/4 G/4A/4G/4A/4G/4A/4 (3G/4F/4E/4 |"Ab" F3) (FG A)(B dB cf d)|"Eb" c3 (G2 A)B3 (cd e)|
"Ab" f3 (cd cB cB AB A)|"Eb" c3 z3 (c2 c/)(B/4A/4G/4A/4G/4A/4 G/4A/4G/4A/4G/4A/4 (3G/4F/4E/4 |"Ab" F3) (FG A)"Db" (B dB "Ab" cf d)|"Eb" c3 (G2 A)"Ab" F3 "Eb" e3 :| |:
"Ab" a2 f(f ga bc' ba ba) |"Eb" (ge c)(c ec) (ge c)(c ec) |"Ab" a2 f(f ga) "Db" (bd' b)"Ab" (a c'a) |"Eb" (ge c)(c de) "Db" f3 f3 |
"Ab" a2 f(f ga bc' ba ba) |"Eb" (ge c)(c ec) (ge c)(c ec) |"Ab" a2 f(f ga) "Db" (bd' b)"Ab" (a c'a) |"Eb" (ge c)(c de) "Ab" f3 f3 :|


